shell/app/images/Erda.svg

<?xml version="1.0" encoding="UTF-8"?>
<svg width="16px" height="16px" viewBox="0 0 16 16" version="1.1" xmlns="http://www.w3.org/2000/svg" xmlns:xlink="http://www.w3.org/1999/xlink">
    <title>Erda</title>
    <defs>
        <linearGradient x1="100%" y1="47.1477671%" x2="0%" y2="50%" id="linearGradient-1">
            <stop stop-color="#FFFFFF" stop-opacity="0.8" offset="0%"></stop>
            <stop stop-color="#FFFFFF" offset="100%"></stop>
        </linearGradient>
        <linearGradient x1="47.4617636%" y1="-7.35868746%" x2="50%" y2="100%" id="linearGradient-2">
            <stop stop-color="#FFFFFF" stop-opacity="0.8" offset="0%"></stop>
            <stop stop-color="#FFFFFF" offset="100%"></stop>
        </linearGradient>
        <linearGradient x1="100%" y1="50%" x2="0%" y2="50%" id="linearGradient-3">
            <stop stop-color="#FFFFFF" offset="0%"></stop>
            <stop stop-color="#FFFFFF" stop-opacity="0.8" offset="100%"></stop>
        </linearGradient>
        <linearGradient x1="100%" y1="50%" x2="0%" y2="50%" id="linearGradient-4">
            <stop stop-color="#FFFFFF" offset="0%"></stop>
            <stop stop-color="#FFFFFF" stop-opacity="0.8" offset="100%"></stop>
        </linearGradient>
    </defs>
    <g id="Erda" stroke="none" stroke-width="1" fill="none" fill-rule="evenodd">
        <g id="编组" transform="translate(0.000000, 1.000000)">
            <path d="M15.9869388,0.342857143 L15.9869388,1.64571429 L15.9869388,1.64571429 C15.9869388,2.55438367 15.2498939,3.29142857 14.3412245,3.29142857 L2.70367347,3.29142857 C1.46127673,3.29142857 0.414955102,4.12839184 0.0987428571,5.27098776 C0.0340897959,5.50138776 -9.42179668e-13,5.74471837 -9.42179668e-13,5.99510204 L-9.42179668e-13,4.34938776 C-9.42179668e-13,3.98497959 0.0447869388,3.62997551 0.129423673,3.29142857 C0.51722449,1.7397551 1.73857959,0.51722449 3.29142857,0.129306122 C3.63009306,0.0446693878 3.98497959,1.10134124e-14 4.34938776,1.10134124e-14 L15.6440816,1.10134124e-14 C15.8334364,1.10341396e-14 15.9869388,0.153502371 15.9869388,0.342857143 Z" id="Fill-1" fill="url(#linearGradient-1)"></path>
            <path d="M5.99510204,14.1061224 L4.34938776,14.1061224 C3.98497959,14.1061224 3.63009306,14.0614531 3.29142857,13.9768163 C1.73987265,13.5877224 0.5184,12.3663673 0.129423673,10.8146939 C0.0447869388,10.4761469 -1.70885528e-13,10.1211429 -1.70885528e-13,9.75673469 L-1.70885528e-13,5.99510204 C-1.70885528e-13,5.74471837 0.0340897959,5.50138776 0.0987428571,5.27098776 C0.414955102,4.12839184 1.46127673,3.29142857 2.70367347,3.29142857 L4.18716735,3.29142857 C4.01213388,3.31846531 3.85108898,3.38782041 3.71578776,3.48773878 C3.4900898,3.65348571 3.33268898,3.90622041 3.29142857,4.19657143 C3.28331755,4.24594286 3.27967347,4.29766531 3.27967347,4.34938776 C3.27967347,4.40228571 3.28331755,4.45400816 3.29142857,4.50337959 L3.29142857,9.61567347 C3.28331755,9.66622041 3.27967347,9.71676735 3.27967347,9.76966531 C3.27967347,9.82256327 3.28331755,9.8731102 3.29142857,9.92365714 L3.29142857,11.402449 C3.29142857,12.6449633 4.1296849,13.6923429 5.27228082,14.0085551 C5.50268082,14.0720327 5.74471837,14.1061224 5.99510204,14.1061224" id="Fill-3" fill="url(#linearGradient-2)"></path>
            <path d="M13.1657143,5.75020408 L13.1657143,7.05306122 L13.1657143,7.05306122 C13.1657143,7.96173061 12.4286694,8.69877551 11.52,8.69877551 L3.29142857,8.69877551 L3.29142857,5.40734694 L4.18716735,5.40734694 C4.19433796,5.40734694 4.20127347,5.40852245 4.20844408,5.40969796 C4.25417143,5.41557551 4.30119184,5.41910204 4.34938776,5.41910204 C4.39758367,5.41910204 4.44472163,5.41557551 4.49044898,5.40969796 C4.49761959,5.40852245 4.5045551,5.40734694 4.51172571,5.40734694 L12.8228571,5.40734694 C13.0122119,5.40734694 13.1657143,5.56084931 13.1657143,5.75020408 Z" id="Fill-5" fill="url(#linearGradient-3)"></path>
            <path d="M15.6440816,14.1061224 L5.99510204,14.1061224 L5.99510204,14.1061224 C5.74471837,14.1061224 5.50268082,14.0720327 5.27228082,14.0085551 C4.1296849,13.6923429 3.29142857,12.6449633 3.29142857,11.402449 L3.29142857,9.92365714 C3.31740735,10.0988082 3.38429388,10.2610286 3.48538776,10.3973878 C3.54651429,10.4832 3.62068898,10.5596082 3.70532571,10.6230857 C3.82640327,10.7147755 3.96864,10.7817796 4.1236898,10.8146939 C4.19657143,10.831151 4.27180408,10.8393796 4.34938776,10.8393796 C4.42697143,10.8393796 4.50232163,10.831151 4.57508571,10.8146939 L14.3412245,10.8146939 C15.2498939,10.8146939 15.9869388,11.5517388 15.9869388,12.4604082 L15.9869388,13.7632653 C15.9869388,13.9526201 15.8334364,14.1061224 15.6440816,14.1061224 Z" id="Fill-7" fill="url(#linearGradient-4)"></path>
        </g>
    </g>
</svg>

<svg width="16" height="16" viewBox="0 0 16 16" xmlns="http://www.w3.org/2000/svg"><defs><linearGradient x1="100%" y1="47.148%" x2="0%" y2="50%" id="a"><stop stop-color="#FFF" stop-opacity=".8" offset="0%"/><stop stop-color="#FFF" offset="100%"/></linearGradient><linearGradient x1="47.462%" y1="-7.359%" x2="50%" y2="100%" id="b"><stop stop-color="#FFF" stop-opacity=".8" offset="0%"/><stop stop-color="#FFF" offset="100%"/></linearGradient><linearGradient x1="100%" y1="50%" x2="0%" y2="50%" id="c"><stop stop-color="#FFF" offset="0%"/><stop stop-color="#FFF" stop-opacity=".8" offset="100%"/></linearGradient><linearGradient x1="100%" y1="50%" x2="0%" y2="50%" id="d"><stop stop-color="#FFF" offset="0%"/><stop stop-color="#FFF" stop-opacity=".8" offset="100%"/></linearGradient></defs><g fill="none" fill-rule="evenodd"><path d="M15.987.343v1.303c0 .908-.737 1.645-1.646 1.645H2.704A2.703 2.703 0 0 0 0 5.995V4.35A4.357 4.357 0 0 1 4.35 0l11.294.001c.19 0 .343.154.343.343z" fill="url(#a)" transform="translate(0 1)"/><path d="M5.995 14.106H4.35c-.364 0-.719-.045-1.058-.13A4.363 4.363 0 0 1 .13 10.816 4.36 4.36 0 0 1 0 9.757V5.995a2.703 2.703 0 0 1 2.704-2.704h1.483A1.068 1.068 0 0 0 3.28 4.35c0 .053.003.105.011.154v5.113a.963.963 0 0 0 0 .308v1.478a2.705 2.705 0 0 0 2.704 2.704" fill="url(#b)" transform="translate(0 1)"/><path d="M13.166 5.75v1.303c0 .909-.737 1.646-1.646 1.646H3.291V5.407h.896l.021.003a1.104 1.104 0 0 0 .282 0l.022-.003h8.31c.19 0 .344.154.344.343z" fill="url(#c)" transform="translate(0 1)"/><path d="M15.644 14.106H5.995a2.705 2.705 0 0 1-2.704-2.704V9.924c.026.175.093.337.194.473a1.057 1.057 0 0 0 1.09.417h9.766c.909 0 1.646.738 1.646 1.646v1.303c0 .19-.154.343-.343.343z" fill="url(#d)" transform="translate(0 1)"/></g></svg>
